public/images/sidebar/home.svg

<svg width="16" height="16" viewBox="0 0 16 16" fill="none" xmlns="http://www.w3.org/2000/svg">
<path fill-rule="evenodd" clip-rule="evenodd" d="M7.59063 0.807119C7.83137 0.619876 8.16847 0.619876 8.40921 0.807119L14.4092 5.47378C14.5716 5.60009 14.6666 5.79429 14.6666 6.00002V13.3334C14.6666 13.8638 14.4559 14.3725 14.0808 14.7476C13.7057 15.1226 13.197 15.3334 12.6666 15.3334H3.33325C2.80282 15.3334 2.29411 15.1226 1.91904 14.7476C1.54397 14.3725 1.33325 13.8638 1.33325 13.3334V6.00002C1.33325 5.79429 1.42823 5.60009 1.59062 5.47378L7.59063 0.807119ZM2.66659 6.32608V13.3334C2.66659 13.5102 2.73682 13.6797 2.86185 13.8048C2.98687 13.9298 3.15644 14 3.33325 14H12.6666C12.8434 14 13.013 13.9298 13.138 13.8048C13.263 13.6797 13.3333 13.5102 13.3333 13.3334V6.32608L7.99992 2.17793L2.66659 6.32608Z" fill="#162D45"/>
<path fill-rule="evenodd" clip-rule="evenodd" d="M5.33325 7.99998C5.33325 7.63179 5.63173 7.33331 5.99992 7.33331H9.99992C10.3681 7.33331 10.6666 7.63179 10.6666 7.99998V14.6666C10.6666 15.0348 10.3681 15.3333 9.99992 15.3333C9.63173 15.3333 9.33325 15.0348 9.33325 14.6666V8.66665H6.66659V14.6666C6.66659 15.0348 6.36811 15.3333 5.99992 15.3333C5.63173 15.3333 5.33325 15.0348 5.33325 14.6666V7.99998Z" fill="#162D45"/>
</svg>

<svg width="16" height="16" fill="none" xmlns="http://www.w3.org/2000/svg"><path fill-rule="evenodd" clip-rule="evenodd" d="M7.59.807a.667.667 0 01.82 0l6 4.667c.162.126.257.32.257.526v7.333a2 2 0 01-2 2H3.333a2 2 0 01-2-2V6c0-.206.095-.4.258-.526l6-4.667zm-4.923 5.52v7.006a.667.667 0 00.666.667h9.334a.667.667 0 00.666-.667V6.326L8 2.178 2.667 6.326z" fill="#162D45"/><path fill-rule="evenodd" clip-rule="evenodd" d="M5.333 8c0-.368.299-.667.667-.667h4c.368 0 .667.299.667.667v6.667a.667.667 0 01-1.334 0v-6H6.667v6a.667.667 0 11-1.334 0V8z" fill="#162D45"/></svg>
